epam-assets/icon-sources/18/synchronization.svg

<svg width="18" height="18" viewBox="0 0 18 18" fill="none" xmlns="http://www.w3.org/2000/svg">
<g id="18/synchronization">
<g id="icon">
<path fill-rule="evenodd" clip-rule="evenodd" d="M5.37891 3.75023L8.43605 7.2441L9.56491 6.25635L8.10674 4.58987C8.82761 4.44378 9.57573 4.4762 10.285 4.68746C11.138 4.94151 11.8965 5.4428 12.4646 6.12793C13.0327 6.81307 13.3848 7.65127 13.4765 8.53655C13.5682 9.42183 13.3954 10.3144 12.9798 11.1015L14.3062 11.8019C14.8603 10.7525 15.0908 9.56236 14.9685 8.38199C14.8463 7.20162 14.3767 6.08401 13.6193 5.1705C12.8618 4.25699 11.8505 3.58861 10.7132 3.24987C9.81262 2.98164 8.8651 2.92964 7.94671 3.09348L9.56491 1.2441L8.43605 0.256348L5.37891 3.75023ZM7.37714 3.74442L7.38268 3.76236L7.37206 3.75023L7.37714 3.74442Z" fill="#6C6F80"/>
<path d="M3.70229 6.18311C3.15841 7.20602 2.9223 8.36451 3.02247 9.51868C3.12265 10.6729 3.55482 11.7733 4.2668 12.6873C4.97877 13.6012 5.94011 14.2894 7.03472 14.6689C7.81534 14.9395 8.63992 15.0448 9.45675 14.9825L7.71967 16.7196L8.78033 17.7802L12.3107 14.2499L8.78033 10.7196L7.71967 11.7802L9.41973 13.4803C8.78196 13.54 8.1361 13.4631 7.52604 13.2516C6.70509 12.967 5.98408 12.4509 5.4501 11.7654C4.91611 11.08 4.59199 10.2546 4.51686 9.38898C4.44173 8.52335 4.61881 7.65448 5.02672 6.8873L3.70229 6.18311Z" fill="#6C6F80"/>
</g>
</g>
</svg>

<svg xmlns="http://www.w3.org/2000/svg" width="18" height="18" fill="none" viewBox="0 0 18 18">
  <path fill="#6C6F80" fill-rule="evenodd" d="m5.379 3.75 3.057 3.494 1.129-.988L8.107 4.59a4.5 4.5 0 0 1 4.873 6.51l1.326.7a6 6 0 0 0-6.36-8.708l1.619-1.849L8.436.256 5.379 3.75Zm1.998-.006.006.018-.01-.012.004-.006Z" clip-rule="evenodd"/>
  <path fill="#6C6F80" d="M3.702 6.183a6 6 0 0 0 5.755 8.8L7.72 16.72l1.06 1.06 3.53-3.53-3.53-3.53-1.06 1.06 1.7 1.7a4.5 4.5 0 0 1-4.393-6.593l-1.325-.704Z"/>
</svg>
